shared/images/iconfont/31-kb-iconfont-finder-16.svg

<svg height="16" viewBox="0 0 16 16" width="16" xmlns="http://www.w3.org/2000/svg"><path d="m13.715 0h-11.428a2.286 2.286 0 0 0 -2.287 2.286v12.714a1 1 0 0 0 1 1h14a1 1 0 0 0 1-1v-12.714a2.286 2.286 0 0 0 -2.285-2.286zm-2.715 2a1 1 0 1 1 0 2 1 1 0 0 1 0-2zm-3 0a1 1 0 1 1 0 2 1 1 0 0 1 0-2zm-3 0a1 1 0 1 1 0 2 1 1 0 0 1 0-2zm9 12h-12v-8h12zm-9-8v8h1v-8z"/></svg>

<svg xmlns="http://www.w3.org/2000/svg" width="16" height="16" viewBox="0 0 16 16">
    <path fill="#000" fill-rule="nonzero" d="M13.715 0H2.287A2.286 2.286 0 0 0 0 2.286V15a1 1 0 0 0 1 1h14a1 1 0 0 0 1-1V2.286A2.286 2.286 0 0 0 13.715 0zM11 2a1 1 0 1 1 0 2 1 1 0 0 1 0-2zM8 2a1 1 0 1 1 0 2 1 1 0 0 1 0-2zM5 2a1 1 0 1 1 0 2 1 1 0 0 1 0-2zm9 12H2V6h12v8zM5 6v8h1V6H5z"/>
</svg>
